public/svgs/twin/anatomy.svg

<svg width="100%" height="100%" viewBox="0 0 42 42" fill="none" xmlns="http://www.w3.org/2000/svg">
<path d="M21.5526 16.0374C24.0579 16.0374 25.9737 14.1216 25.9737 11.6164C25.9737 9.1111 24.0579 7.19531 21.5526 7.19531C19.0474 7.19531 17.1316 9.1111 17.1316 11.6164C17.1316 14.1216 19.0474 16.0374 21.5526 16.0374ZM21.5526 10.1427C22.4368 10.1427 23.0263 10.7322 23.0263 11.6164C23.0263 12.5006 22.4368 13.09 21.5526 13.09C20.6684 13.09 20.0789 12.5006 20.0789 11.6164C20.0789 10.7322 20.6684 10.1427 21.5526 10.1427ZM23.0263 21.49V19.7216H31.1316C32.0158 19.7216 32.6053 19.1322 32.6053 18.2479C32.6053 17.3637 32.0158 16.7743 31.1316 16.7743H11.9737C11.0895 16.7743 10.5 17.3637 10.5 18.2479C10.5 19.1322 11.0895 19.7216 11.9737 19.7216H20.0789V21.49C18.0158 22.0795 16.3947 24.1427 16.3947 26.3532V33.7216C16.3947 34.6058 16.9842 35.1953 17.8684 35.1953C18.7526 35.1953 19.3421 34.6058 19.3421 33.7216V26.3532C19.3421 25.1743 20.3737 24.1427 21.5526 24.1427C22.7316 24.1427 23.7632 25.1743 23.7632 26.3532V33.7216C23.7632 34.6058 24.3526 35.1953 25.2368 35.1953C26.1211 35.1953 26.7105 34.6058 26.7105 33.7216V26.3532C26.7105 23.9953 25.0895 22.0795 23.0263 21.49Z" fill="current" stroke="#00000000"/>
<path d="M41 36V41H36M41 6V1H36M6 1H1V6M1 36V41H6" stroke="current" fill="#00000000" stroke-width="2"/>
</svg>

<svg xmlns="http://www.w3.org/2000/svg" fill="none" viewBox="0 0 42 42"><path fill="current" stroke="#00000000" d="M21.553 16.037c2.505 0 4.42-1.915 4.42-4.42s-1.915-4.422-4.42-4.422-4.421 1.916-4.421 4.421 1.915 4.421 4.42 4.421Zm0-5.894c.884 0 1.473.59 1.473 1.473 0 .885-.59 1.474-1.473 1.474-.885 0-1.474-.59-1.474-1.474s.59-1.473 1.474-1.473Zm1.473 11.347v-1.768h8.106c.884 0 1.473-.59 1.473-1.474s-.59-1.474-1.473-1.474H11.974c-.885 0-1.474.59-1.474 1.474s.59 1.474 1.474 1.474h8.105v1.768c-2.063.59-3.684 2.653-3.684 4.863v7.369c0 .884.59 1.473 1.473 1.473.885 0 1.474-.59 1.474-1.473v-7.369c0-1.179 1.032-2.21 2.21-2.21 1.18 0 2.211 1.031 2.211 2.21v7.369c0 .884.59 1.473 1.474 1.473s1.474-.59 1.474-1.473v-7.369c0-2.358-1.621-4.274-3.685-4.863Z"/><path fill="#00000000" stroke="current" stroke-width="2" d="M41 36v5h-5m5-35V1h-5M6 1H1v5m0 30v5h5"/></svg>
